projects/flag-game/flags/Nepal.svg

<svg viewBox="0 0 1000 1220" xmlns="http://www.w3.org/2000/svg"><path d="m36.226562 591.5h838.039063l-838.039063-524.800781v1117.382812h838.039063l-838.039063-838.035156zm0 0" fill="none" stroke="#003893" stroke-width="72.136425"/><path d="m275.171875 997.65625-29.433594 69.472656-29.441406-69.472656zm0 0" fill="#fff" fill-rule="evenodd"/><path d="m36.226562 591.503906h838.039063l-838.039063-524.804687zm0 0" fill="#dc143c" stroke="#dc143c" stroke-width="72.136425"/><path d="m36.226562 1184.082031h838.039063l-838.039063-838.035156zm0 0" fill="#dc143c" stroke="#dc143c" stroke-width="72.136425"/><g fill="#fff" fill-rule="evenodd"><path d="m78.824219 394.703125c26.160156 66.554687 95.398437 113.738281 166.914062 113.738281s140.753907-47.183594 166.914063-113.738281c0 43.695313-17.992188 87.121094-48.894532 118.023437-30.890624 30.898438-74.324218 48.882813-118.019531 48.882813-43.703125 0-87.128906-17.984375-118.027343-48.882813-30.894532-30.902343-48.886719-74.328124-48.886719-118.023437zm0 0"/><path d="m323.410156 472.371094c0 42.902344-34.777344 77.675781-77.671875 77.675781-42.902343 0-77.675781-34.773437-77.675781-77.675781 0-42.894532 34.773438-77.667969 77.675781-77.667969 42.894531 0 77.671875 34.773437 77.671875 77.667969zm0 0"/><path d="m275.460938 400.613281-8.679688-34.039062-21.042969 28.128906zm0 0"/><path d="m300.660156 417.449219 5.007813-34.765625-30.207031 17.929687zm0 0"/><path d="m317.496094 442.648438 17.929687-30.199219-34.765625 5zm0 0"/><path d="m323.410156 472.371094 28.125-21.042969-34.039062-8.679687zm0 0"/><path d="m317.496094 502.097656 34.039062-8.679687-28.125-21.046875zm0 0"/><path d="m300.660156 527.292969 34.765625 5.011719-17.929687-30.207032zm0 0"/><path d="m216.015625 400.613281 8.679687-34.039062 21.042969 28.128906zm0 0"/><path d="m190.8125 417.449219-5.007812-34.765625 30.210937 17.929687zm0 0"/><path d="m173.980469 442.648438-17.933594-30.199219 34.765625 5zm0 0"/><path d="m168.0625 472.371094-28.121094-21.042969 34.039063-8.679687zm0 0"/><path d="m173.980469 502.097656-34.039063-8.679687 28.121094-21.046875zm0 0"/><path d="m190.8125 527.292969-34.765625 5.011719 17.933594-30.207032zm0 0"/><path d="m359.476562 887.792969c0 62.816406-50.921874 113.738281-113.738281 113.738281-62.816406 0-113.738281-50.921875-113.738281-113.738281 0-62.816407 50.921875-113.746094 113.738281-113.746094 62.816407 0 113.738281 50.929687 113.738281 113.746094zm0 0"/><path d="m275.171875 997.65625-29.433594 69.472656-29.441406-69.472656zm0 0"/><path d="m216.296875 777.925781 29.441406-69.476562 29.433594 69.476562zm0 0"/><path d="m135.871094 917.226562-69.480469-29.433593 69.480469-29.441407zm0 0"/><path d="m355.601562 858.351562 69.472657 29.441407-69.472657 29.433593zm0 0"/><path d="m216.296875 997.65625-60.226563 45.453125 9.234376-74.890625zm0 0"/><path d="m275.171875 777.925781 60.234375-45.449219-9.246094 74.886719zm0 0"/><path d="m135.871094 858.351562-45.449219-60.226562 74.882813 9.238281zm0 0"/><path d="m355.601562 917.226562 45.453126 60.234376-74.894532-9.242188zm0 0"/><path d="m165.304688 968.21875-74.882813 9.242188 45.449219-60.234376zm0 0"/><path d="m326.160156 807.363281 74.894532-9.238281-45.453126 60.226562zm0 0"/><path d="m165.304688 807.363281-9.234376-74.886719 60.226563 45.449219zm0 0"/><path d="m326.160156 968.21875 9.246094 74.890625-60.234375-45.453125zm0 0"/></g></svg>

<?xml version="1.0" encoding="UTF-8"?>
<svg xmlns="http://www.w3.org/2000/svg" xmlns:xlink="http://www.w3.org/1999/xlink" viewBox="0 0 1000 1220" version="1.1">
<g id="surface840">
<path style="fill:none;stroke-width:72.136425;stroke-linecap:butt;stroke-linejoin:miter;stroke:rgb(0%,21.960449%,57.646179%);stroke-opacity:1;stroke-miterlimit:4;" d="M 36.226562 591.5 L 874.265625 591.5 L 36.226562 66.699219 L 36.226562 1184.082031 L 874.265625 1184.082031 L 36.226562 346.046875 Z M 36.226562 591.5 "/>
<path style=" stroke:none;fill-rule:evenodd;fill:rgb(99.998474%,99.998474%,99.998474%);fill-opacity:1;" d="M 275.171875 997.65625 L 245.738281 1067.128906 L 216.296875 997.65625 Z M 275.171875 997.65625 "/>
<path style="fill-rule:nonzero;fill:rgb(86.273193%,7.843018%,23.529053%);fill-opacity:1;stroke-width:72.136425;stroke-linecap:butt;stroke-linejoin:miter;stroke:rgb(86.273193%,7.843018%,23.529053%);stroke-opacity:1;stroke-miterlimit:4;" d="M 36.226562 591.503906 L 874.265625 591.503906 L 36.226562 66.699219 Z M 36.226562 591.503906 "/>
<path style="fill-rule:nonzero;fill:rgb(86.273193%,7.843018%,23.529053%);fill-opacity:1;stroke-width:72.136425;stroke-linecap:butt;stroke-linejoin:miter;stroke:rgb(86.273193%,7.843018%,23.529053%);stroke-opacity:1;stroke-miterlimit:4;" d="M 36.226562 1184.082031 L 874.265625 1184.082031 L 36.226562 346.046875 Z M 36.226562 1184.082031 "/>
<path style=" stroke:none;fill-rule:evenodd;fill:rgb(99.998474%,99.998474%,99.998474%);fill-opacity:1;" d="M 78.824219 394.703125 C 104.984375 461.257812 174.222656 508.441406 245.738281 508.441406 C 317.253906 508.441406 386.492188 461.257812 412.652344 394.703125 C 412.652344 438.398438 394.660156 481.824219 363.757812 512.726562 C 332.867188 543.625 289.433594 561.609375 245.738281 561.609375 C 202.035156 561.609375 158.609375 543.625 127.710938 512.726562 C 96.816406 481.824219 78.824219 438.398438 78.824219 394.703125 Z M 78.824219 394.703125 "/>
<path style=" stroke:none;fill-rule:evenodd;fill:rgb(99.998474%,99.998474%,99.998474%);fill-opacity:1;" d="M 323.410156 472.371094 C 323.410156 515.273438 288.632812 550.046875 245.738281 550.046875 C 202.835938 550.046875 168.0625 515.273438 168.0625 472.371094 C 168.0625 429.476562 202.835938 394.703125 245.738281 394.703125 C 288.632812 394.703125 323.410156 429.476562 323.410156 472.371094 Z M 323.410156 472.371094 "/>
<path style=" stroke:none;fill-rule:evenodd;fill:rgb(99.998474%,99.998474%,99.998474%);fill-opacity:1;" d="M 275.460938 400.613281 L 266.78125 366.574219 L 245.738281 394.703125 Z M 275.460938 400.613281 "/>
<path style=" stroke:none;fill-rule:evenodd;fill:rgb(99.998474%,99.998474%,99.998474%);fill-opacity:1;" d="M 300.660156 417.449219 L 305.667969 382.683594 L 275.460938 400.613281 Z M 300.660156 417.449219 "/>
<path style=" stroke:none;fill-rule:evenodd;fill:rgb(99.998474%,99.998474%,99.998474%);fill-opacity:1;" d="M 317.496094 442.648438 L 335.425781 412.449219 L 300.660156 417.449219 Z M 317.496094 442.648438 "/>
<path style=" stroke:none;fill-rule:evenodd;fill:rgb(99.998474%,99.998474%,99.998474%);fill-opacity:1;" d="M 323.410156 472.371094 L 351.535156 451.328125 L 317.496094 442.648438 Z M 323.410156 472.371094 "/>
<path style=" stroke:none;fill-rule:evenodd;fill:rgb(99.998474%,99.998474%,99.998474%);fill-opacity:1;" d="M 317.496094 502.097656 L 351.535156 493.417969 L 323.410156 472.371094 Z M 317.496094 502.097656 "/>
<path style=" stroke:none;fill-rule:evenodd;fill:rgb(99.998474%,99.998474%,99.998474%);fill-opacity:1;" d="M 300.660156 527.292969 L 335.425781 532.304688 L 317.496094 502.097656 Z M 300.660156 527.292969 "/>
<path style=" stroke:none;fill-rule:evenodd;fill:rgb(99.998474%,99.998474%,99.998474%);fill-opacity:1;" d="M 216.015625 400.613281 L 224.695312 366.574219 L 245.738281 394.703125 Z M 216.015625 400.613281 "/>
<path style=" stroke:none;fill-rule:evenodd;fill:rgb(99.998474%,99.998474%,99.998474%);fill-opacity:1;" d="M 190.8125 417.449219 L 185.804688 382.683594 L 216.015625 400.613281 Z M 190.8125 417.449219 "/>
<path style=" stroke:none;fill-rule:evenodd;fill:rgb(99.998474%,99.998474%,99.998474%);fill-opacity:1;" d="M 173.980469 442.648438 L 156.046875 412.449219 L 190.8125 417.449219 Z M 173.980469 442.648438 "/>
<path style=" stroke:none;fill-rule:evenodd;fill:rgb(99.998474%,99.998474%,99.998474%);fill-opacity:1;" d="M 168.0625 472.371094 L 139.941406 451.328125 L 173.980469 442.648438 Z M 168.0625 472.371094 "/>
<path style=" stroke:none;fill-rule:evenodd;fill:rgb(99.998474%,99.998474%,99.998474%);fill-opacity:1;" d="M 173.980469 502.097656 L 139.941406 493.417969 L 168.0625 472.371094 Z M 173.980469 502.097656 "/>
<path style=" stroke:none;fill-rule:evenodd;fill:rgb(99.998474%,99.998474%,99.998474%);fill-opacity:1;" d="M 190.8125 527.292969 L 156.046875 532.304688 L 173.980469 502.097656 Z M 190.8125 527.292969 "/>
<path style=" stroke:none;fill-rule:evenodd;fill:rgb(99.998474%,99.998474%,99.998474%);fill-opacity:1;" d="M 359.476562 887.792969 C 359.476562 950.609375 308.554688 1001.53125 245.738281 1001.53125 C 182.921875 1001.53125 132 950.609375 132 887.792969 C 132 824.976562 182.921875 774.046875 245.738281 774.046875 C 308.554688 774.046875 359.476562 824.976562 359.476562 887.792969 Z M 359.476562 887.792969 "/>
<path style=" stroke:none;fill-rule:evenodd;fill:rgb(99.998474%,99.998474%,99.998474%);fill-opacity:1;" d="M 275.171875 997.65625 L 245.738281 1067.128906 L 216.296875 997.65625 Z M 275.171875 997.65625 "/>
<path style=" stroke:none;fill-rule:evenodd;fill:rgb(99.998474%,99.998474%,99.998474%);fill-opacity:1;" d="M 216.296875 777.925781 L 245.738281 708.449219 L 275.171875 777.925781 Z M 216.296875 777.925781 "/>
<path style=" stroke:none;fill-rule:evenodd;fill:rgb(99.998474%,99.998474%,99.998474%);fill-opacity:1;" d="M 135.871094 917.226562 L 66.390625 887.792969 L 135.871094 858.351562 Z M 135.871094 917.226562 "/>
<path style=" stroke:none;fill-rule:evenodd;fill:rgb(99.998474%,99.998474%,99.998474%);fill-opacity:1;" d="M 355.601562 858.351562 L 425.074219 887.792969 L 355.601562 917.226562 Z M 355.601562 858.351562 "/>
<path style=" stroke:none;fill-rule:evenodd;fill:rgb(99.998474%,99.998474%,99.998474%);fill-opacity:1;" d="M 216.296875 997.65625 L 156.070312 1043.109375 L 165.304688 968.21875 Z M 216.296875 997.65625 "/>
<path style=" stroke:none;fill-rule:evenodd;fill:rgb(99.998474%,99.998474%,99.998474%);fill-opacity:1;" d="M 275.171875 777.925781 L 335.40625 732.476562 L 326.160156 807.363281 Z M 275.171875 777.925781 "/>
<path style=" stroke:none;fill-rule:evenodd;fill:rgb(99.998474%,99.998474%,99.998474%);fill-opacity:1;" d="M 135.871094 858.351562 L 90.421875 798.125 L 165.304688 807.363281 Z M 135.871094 858.351562 "/>
<path style=" stroke:none;fill-rule:evenodd;fill:rgb(99.998474%,99.998474%,99.998474%);fill-opacity:1;" d="M 355.601562 917.226562 L 401.054688 977.460938 L 326.160156 968.21875 Z M 355.601562 917.226562 "/>
<path style=" stroke:none;fill-rule:evenodd;fill:rgb(99.998474%,99.998474%,99.998474%);fill-opacity:1;" d="M 165.304688 968.21875 L 90.421875 977.460938 L 135.871094 917.226562 Z M 165.304688 968.21875 "/>
<path style=" stroke:none;fill-rule:evenodd;fill:rgb(99.998474%,99.998474%,99.998474%);fill-opacity:1;" d="M 326.160156 807.363281 L 401.054688 798.125 L 355.601562 858.351562 Z M 326.160156 807.363281 "/>
<path style=" stroke:none;fill-rule:evenodd;fill:rgb(99.998474%,99.998474%,99.998474%);fill-opacity:1;" d="M 165.304688 807.363281 L 156.070312 732.476562 L 216.296875 777.925781 Z M 165.304688 807.363281 "/>
<path style=" stroke:none;fill-rule:evenodd;fill:rgb(99.998474%,99.998474%,99.998474%);fill-opacity:1;" d="M 326.160156 968.21875 L 335.40625 1043.109375 L 275.171875 997.65625 Z M 326.160156 968.21875 "/>
</g>
</svg>
